!!!COA:	Josquin des Prez
!!!CDT:	~1450-1521/08/27
!!!OTL:	Iniquos odio habuvi
!!!AGN:	Fragment; Motet
!!!SCT:	NJE 17.6
!!!SCA:	New Josquin Edition 17.6
!!!voices:	?
**kern
*staff1
*Ivox
*I"Tenor
*I'T
*clefGv2
*k[]
*M2/1
*met(C|)
!!incipit: 8
=1-
0r
=2
0r
=3
0r
=4
1r
[1c
=5
0c_
=6
1c]
[1A
=7
0A_
=8
1A]
[1B
=9
0B_
=10
1B]
[1G
=11
0G_
=12
1G]
1r
=13
0r
=14
0r
=15
0r
=16
0r
=17
1r
[1c
=18
1c]
[1A
=19
1A]
[1B
=20
1B]
[1G
=21
1G]
1r
=22
0r
=23
1r
1c
=24
1A
1B
=25
1G
1r
=26
0r
=27
1r
2c\
2A/
=28
2B\
2G/
1r
=29
0r
=30
1r
1A
=31
1c
1B
=32
1A
1c
=33
0B
=34
0r
=35
0r
=36
0r
=37
0r
=38
0r
=39
0r
=40
0r
=41
0r
=42
0r
=43
0r
=44
0r
=45
0r
=46
1r
[1c
=47
2c\]
2c\
[1d
=48
1d]
[1c;
=49
1c]
2r
2A/
=50
1d
1A
=51
0r
=52
1A
2B\
2c\
=53
2d\
2d\
1e
=54
0r
=55
1r
1c
=56
2c\
2c\
2c\
2c\
=57
0B
=58
1r
1c
=59
1B
1A
=60
2c\
1A
2G/
=61
2A/
4G/
4F/
1E
=62
0D
=63
1r
1d
=64
2c\
2A/
2B\
2c\
=65
1d
1r
=66
0r
=67
0r
=68
1e
2e\
2e\
=69
2d\
2d\
2d\
2d\
=70
0c
=71
0B
=72
0r
=73
0r
=74
0r
=75
1c
2c\
2c\
=76
2c\
2c\
2c\
2c\
=77
2.A/
4G/
1F
=78
1E
1E
=79
1D
1d
=80
0c
=81
0cl
==
*-
!!!RDF**kern: l=long note in original notation
!!!RDF**kern: V=start of tuplet marker
!!!RDF**kern: Z=end of tuplet marker
!!!ENC:	Chris Gage 06-11-2012
!!!END:	2012/06/29/
!!!EED:	Jesse Rodin
!!!EEV:	2012/07/26/
!!attribution-level@Jos: 4 (questionable)
!!!ONB:	Translated from MusicXML and edited on 2012/07/26/ by Craig Sapp
!!muse2ps: C^@{COA}?\n@{SCT}^i2I150v150Q16
